X: 1
T:The Galway Whistler  "Arranged by Terry Tully"
M:C
L:1/8
Q:80
C:Traditional Irish
S:Reel
K:HP
[| {g}AB|
c{e}c{G}cB{gcd}cB{G}AB|
{g}ce{A}ec{g}B{d}c{G}AB|  !
c{e}c{G}ce{g}fA{gef}ec|
{g}B{d}A{g}Bc{g}B{G}B{g}ABc{e}c{G}cB{gcd}cB{G}AB|
{g}ce{A}ec{g}B{d}c{G}AB|  !
c{e}c{G}ce{g}fA{gef}ec|
{g}B{d}A{g}Bc{G}A|] [|
{g}cd|  !
e{g}e{A}ed{g}c{d}A{g}ce|
{g}Aa{g}ag{a}fe{g}fa|
c{e}c{G}cB{g}AB{gcd}cA|  !
B{e}B{G}Bc{g}B{G}B{g}cde{g}e{A}ed{g}c{d}A{g}ce|
{g}Aa{g}ag{a}fe{g}fa|
c{e}c{G}ce{g}fA{gef}ec|  !
{g}B{d}A{g}Bc{G}A|]
